X: 1
R: reel
P: Apples in Winter
C: from Kerr's 4
C: arr. Andy Imbrie
M: 4/4
L: 1/8
K: G
B|"G"d2 d2 "C"efge|"G"ded^c "(B)"d2 B2|"C"cdcB "D"c2 A2|"G"BcBA "D7"B2 G2|"G"d2 d2 "C"efge|"Bm"ded^c "Em"d2 B2|"Am"cdcB "D"c2 A2|"G - "G2 "D - " B2 "G" G2 z2 ||
"D"A2 FD "G"B2 GD|"C"cdcB "D"A2 A2|"G"B2 GD "Am"c2 AF|"D"dedc "G"B2 B2|"A"^c2 c2 "A7/C#"efge|"D"fgfe "D/F#"d2 d2|"Em/A"efed "A7"^cABc|"D - "d2 "A - "f2 "D"d2 z2||
"D"A2 FD "G"B2 GD|"C"cdcB "D"A2 A2|"G"B2 GD "Am"c2 AF|"D"dedc "G"B2 B2|"A"^c2 c2 "A7/C#"efge|"D"fgfe "D/F#"d2 d2|"Em/A"efed "A7"^cABc|"D"d^c" (C)"de "D7/B"d=c" (A)"Bc||
"G"d2 d2 "C"efge|"G"ded^c "(B)"d2 B2|"C"cdcB "D"c2 A2|"G"BcBA "D7"B2 G2|"G"d2 d2 "C"efge|"Bm"ded^c "Em"d2 B2|"Am"cdcB "D"c2 A2|"G - "G2 "D - " B2 "G" G2 |]

